assets/gcpidentityplatform/original.svg

<svg height="24" width="24" xmlns="http://www.w3.org/2000/svg"><g fill-rule="evenodd"><path d="m3.33 7 8.67-5 8.66 5v9.72l-3.33-2.72h-10.66l-3.34 2.67zm12.67 1.67a4 4 0 1 0 -4 4 4 4 0 0 0 4-4m-1.33 0a2.67 2.67 0 1 1 -2.67-2.67 2.67 2.67 0 0 1 2.67 2.67" fill="#669df6"/><path d="m12 12.67a4 4 0 0 0 0-8v-2.67l8.66 5v9.72l-3.33-2.72h-5.33zm2.67-4a2.67 2.67 0 0 1 -2.67 2.64v-5.31a2.67 2.67 0 0 1 2.67 2.66z" fill="#4285f4"/><path d="m4 18 8 4 8-4-3.33-2.67h-9.34z" fill="#669df6"/><path d="m12 22 8-4-3.33-2.67h-4.67z" fill="#4285f4"/></g></svg>

<svg xmlns="http://www.w3.org/2000/svg" width="24" height="24"><g data-name="Product Icons"><path d="M3.33 7 12 2l8.66 5v9.72L17.33 14H6.67l-3.34 2.67ZM16 8.67a4 4 0 1 0-4 4 4 4 0 0 0 4-4m-1.33 0A2.67 2.67 0 1 1 12 6a2.67 2.67 0 0 1 2.67 2.67" fill="#669df6" fill-rule="evenodd"/><path d="M12 12.67a4 4 0 0 0 0-8V2l8.66 5v9.72L17.33 14H12Zm2.67-4A2.67 2.67 0 0 1 12 11.31V6a2.67 2.67 0 0 1 2.67 2.66Z" fill-rule="evenodd" fill="#4285f4"/><path d="m4 18 8 4 8-4-3.33-2.67H7.33z" fill="#669df6" fill-rule="evenodd"/><path d="m12 22 8-4-3.33-2.67H12z" fill-rule="evenodd" fill="#4285f4"/></g></svg>
